X:1
T:[ID 2-26b]
T:[ID 2-26b]
T:Bezeichnung standardisiert: Menuett Menuet 1. ex D.#.
T:Urheber unbekannt Datum in der hier transkribierten schriftlichen Quelle: 1767
C:Urheber unbekannt
C:Datum in der hier transkribierten schriftlichen Quelle: 1767
L:1/8
M:3/4
K:D
V:1 bass 
V:1
 D,2 D,,2 A,,2 | D,2 E,2 F,2 | D,2 A,2 A,,2 | D,2 D,,2 z2 | D,C, B,,2 E,2 | C,2 A,2 ^G,2 | %6
 A,D, E,2 E,,2 | A,2 E,2 A,,2 :: D,2 F,2 D,2 | G,2 D,2 A,,2 | E,2 ^G,2 E,2 | A,2 E,2 A,,2 | %12
 A,,2 C,2 A,,2 | D,2 E,2 F,2 | G,2 A,2 A,,2 | D,2 A,,2 D,,2 :| %16

